_includes/icons/ios-php.svg

<svg fill="#666" height="50" viewBox="0 0 50 50" width="50" xmlns="http://www.w3.org/2000/svg"><path d="m3 0c-1.644531 0-3 1.355469-3 3v44c0 1.644531 1.355469 3 3 3h44c1.644531 0 3-1.355469 3-3v-44c0-1.644531-1.355469-3-3-3zm0 2h44c.554688 0 1 .445313 1 1v44c0 .554688-.445312 1-1 1h-44c-.554687 0-1-.445312-1-1v-44c0-.554687.445313-1 1-1zm12.09375 16.40625c-.867187 0-1.71875.097656-2.40625.28125v13.3125h2.125v-5.3125h.59375c1.101563 0 2.386719-.476562 3.1875-1.375.601563-.699219 1-1.601562 1-3 0-1.199219-.394531-2.207031-1.09375-2.90625-.800781-.699219-2.007812-1-3.40625-1zm18.5 0c-.867187 0-1.71875.097656-2.40625.28125v13.3125h2.125v-5.3125h.59375c1.101563 0 2.386719-.476562 3.1875-1.375.601563-.699219 1-1.601562 1-3 0-1.199219-.394531-2.207031-1.09375-2.90625-.800781-.699219-2.007812-1-3.40625-1zm-12.28125.09375v13.5h2.09375v-5.90625h3.1875v5.90625h2.09375v-13.5h-2.09375v5.59375h-3.1875v-5.59375zm-5.8125 1.6875c1.5 0 2 1.011719 2 2.3125 0 1.5-.789062 2.5-2.1875 2.5h-.5v-4.6875c.101563-.101562.386719-.125.6875-.125zm18.40625 0c1.5 0 2 1.011719 2 2.3125 0 1.5-.820312 2.5-2.21875 2.5h-.5v-4.6875c.101563-.101562.417969-.125.71875-.125z"/></svg>

<svg xmlns="http://www.w3.org/2000/svg" viewBox="0 0 50 50" width="50" height="50" fill="#666"><path d="M 3 0 C 1.355469 0 0 1.355469 0 3 L 0 47 C 0 48.644531 1.355469 50 3 50 L 47 50 C 48.644531 50 50 48.644531 50 47 L 50 3 C 50 1.355469 48.644531 0 47 0 Z M 3 2 L 47 2 C 47.554688 2 48 2.445313 48 3 L 48 47 C 48 47.554688 47.554688 48 47 48 L 3 48 C 2.445313 48 2 47.554688 2 47 L 2 3 C 2 2.445313 2.445313 2 3 2 Z M 15.09375 18.40625 C 14.226563 18.40625 13.375 18.503906 12.6875 18.6875 L 12.6875 32 L 14.8125 32 L 14.8125 26.6875 L 15.40625 26.6875 C 16.507813 26.6875 17.792969 26.210938 18.59375 25.3125 C 19.195313 24.613281 19.59375 23.710938 19.59375 22.3125 C 19.59375 21.113281 19.199219 20.105469 18.5 19.40625 C 17.699219 18.707031 16.492188 18.40625 15.09375 18.40625 Z M 33.59375 18.40625 C 32.726563 18.40625 31.875 18.503906 31.1875 18.6875 L 31.1875 32 L 33.3125 32 L 33.3125 26.6875 L 33.90625 26.6875 C 35.007813 26.6875 36.292969 26.210938 37.09375 25.3125 C 37.695313 24.613281 38.09375 23.710938 38.09375 22.3125 C 38.09375 21.113281 37.699219 20.105469 37 19.40625 C 36.199219 18.707031 34.992188 18.40625 33.59375 18.40625 Z M 21.3125 18.5 L 21.3125 32 L 23.40625 32 L 23.40625 26.09375 L 26.59375 26.09375 L 26.59375 32 L 28.6875 32 L 28.6875 18.5 L 26.59375 18.5 L 26.59375 24.09375 L 23.40625 24.09375 L 23.40625 18.5 Z M 15.5 20.1875 C 17 20.1875 17.5 21.199219 17.5 22.5 C 17.5 24 16.710938 25 15.3125 25 L 14.8125 25 L 14.8125 20.3125 C 14.914063 20.210938 15.199219 20.1875 15.5 20.1875 Z M 33.90625 20.1875 C 35.40625 20.1875 35.90625 21.199219 35.90625 22.5 C 35.90625 24 35.085938 25 33.6875 25 L 33.1875 25 L 33.1875 20.3125 C 33.289063 20.210938 33.605469 20.1875 33.90625 20.1875 Z"/></svg>
